packages/assets/static/images/icons/doc-docx.svg

<svg width="24" height="24" viewBox="0 0 24 24" xmlns="http://www.w3.org/2000/svg">
<path d="M4 13.125H2.5C2.20163 13.125 1.91548 13.2435 1.7045 13.4545C1.49353 13.6655 1.375 13.9516 1.375 14.25V19.5C1.375 19.7984 1.49353 20.0845 1.7045 20.2955C1.91548 20.5065 2.20163 20.625 2.5 20.625H4C4.99456 20.625 5.94839 20.2299 6.65165 19.5266C7.35491 18.8234 7.75 17.8696 7.75 16.875C7.75 15.8804 7.35491 14.9266 6.65165 14.2233C5.94839 13.5201 4.99456 13.125 4 13.125ZM4 18.375H3.625V15.375H4C4.39782 15.375 4.77936 15.533 5.06066 15.8143C5.34196 16.0956 5.5 16.4772 5.5 16.875C5.5 17.2728 5.34196 17.6544 5.06066 17.9357C4.77936 18.217 4.39782 18.375 4 18.375ZM20.9031 18.0187C21.0103 18.121 21.0963 18.2433 21.156 18.3789C21.2158 18.5144 21.2482 18.6603 21.2515 18.8084C21.2547 18.9565 21.2286 19.1038 21.1748 19.2417C21.121 19.3797 21.0404 19.5057 20.9378 19.6125C20.6416 19.9299 20.2836 20.1834 19.8859 20.3575C19.4882 20.5316 19.0591 20.6226 18.625 20.625C16.7641 20.625 15.25 18.9431 15.25 16.875C15.25 14.8069 16.7641 13.125 18.625 13.125C19.0593 13.1277 19.4886 13.2192 19.8863 13.3938C20.284 13.5684 20.6418 13.8224 20.9378 14.1403C21.1442 14.3559 21.2565 14.6446 21.25 14.943C21.2435 15.2413 21.1187 15.5249 20.9031 15.7313C20.6876 15.9376 20.3988 16.0499 20.1005 16.0434C19.8021 16.0369 19.5186 15.9121 19.3122 15.6966C19.2254 15.5992 19.1197 15.5205 19.0016 15.4652C18.8835 15.41 18.7554 15.3793 18.625 15.375C18.0156 15.375 17.5 16.0622 17.5 16.875C17.5 17.6878 18.0156 18.375 18.625 18.375C18.7554 18.3707 18.8835 18.34 19.0016 18.2848C19.1197 18.2295 19.2254 18.1508 19.3122 18.0534C19.4144 17.9467 19.5366 17.8611 19.6718 17.8016C19.8071 17.742 19.9527 17.7097 20.1005 17.7065C20.2482 17.7033 20.3951 17.7292 20.5329 17.7828C20.6706 17.8364 20.7964 17.9165 20.9031 18.0187ZM11.5 13.125C9.63906 13.125 8.125 14.8069 8.125 16.875C8.125 18.9431 9.63906 20.625 11.5 20.625C13.3609 20.625 14.875 18.9431 14.875 16.875C14.875 14.8069 13.3609 13.125 11.5 13.125ZM11.5 18.375C10.8906 18.375 10.375 17.6878 10.375 16.875C10.375 16.0622 10.8906 15.375 11.5 15.375C12.1094 15.375 12.625 16.0622 12.625 16.875C12.625 17.6878 12.1094 18.375 11.5 18.375ZM4 11.25C4.29837 11.25 4.58452 11.1315 4.7955 10.9205C5.00647 10.7095 5.125 10.4234 5.125 10.125V4.125H12.25V8.625C12.25 8.92337 12.3685 9.20952 12.5795 9.4205C12.7905 9.63147 13.0766 9.75 13.375 9.75H17.875V10.125C17.875 10.4234 17.9935 10.7095 18.2045 10.9205C18.4155 11.1315 18.7016 11.25 19 11.25C19.2984 11.25 19.5845 11.1315 19.7955 10.9205C20.0065 10.7095 20.125 10.4234 20.125 10.125V8.25C20.125 7.95187 20.0066 7.66593 19.7959 7.455L14.5459 2.205C14.4415 2.10039 14.3174 2.0174 14.1808 1.96078C14.0442 1.90416 13.8978 1.87501 13.75 1.875H4.75C4.25272 1.875 3.77581 2.07254 3.42417 2.42417C3.07254 2.77581 2.875 3.25272 2.875 3.75V10.125C2.875 10.4234 2.99353 10.7095 3.2045 10.9205C3.41548 11.1315 3.70163 11.25 4 11.25ZM14.5 5.34375L16.6562 7.5H14.5V5.34375Z"/>
</svg>

<svg viewBox="0 0 24 24" xmlns="http://www.w3.org/2000/svg" aria-hidden="true" fill="currentColor" height="24px" width="24px"><path d="M4 13.125H2.5a1.125 1.125 0 0 0-1.125 1.125v5.25A1.125 1.125 0 0 0 2.5 20.625H4a3.75 3.75 0 0 0 0-7.5m0 5.25h-.375v-3H4a1.5 1.5 0 1 1 0 3m16.903-.356a1.124 1.124 0 0 1 .035 1.594 3.19 3.19 0 0 1-2.313 1.012c-1.86 0-3.375-1.682-3.375-3.75s1.514-3.75 3.375-3.75a3.19 3.19 0 0 1 2.313 1.015 1.125 1.125 0 1 1-1.626 1.557.96.96 0 0 0-.687-.322c-.61 0-1.125.687-1.125 1.5s.516 1.5 1.125 1.5a.96.96 0 0 0 .687-.322 1.126 1.126 0 0 1 1.591-.034M11.5 13.125c-1.86 0-3.375 1.682-3.375 3.75s1.514 3.75 3.375 3.75 3.375-1.682 3.375-3.75-1.514-3.75-3.375-3.75m0 5.25c-.61 0-1.125-.687-1.125-1.5s.516-1.5 1.125-1.5c.61 0 1.125.687 1.125 1.5s-.516 1.5-1.125 1.5M4 11.25a1.125 1.125 0 0 0 1.125-1.125v-6h7.125v4.5a1.125 1.125 0 0 0 1.125 1.125h4.5v.375a1.125 1.125 0 1 0 2.25 0V8.25c0-.298-.118-.584-.33-.795l-5.25-5.25a1.12 1.12 0 0 0-.795-.33h-9A1.875 1.875 0 0 0 2.875 3.75v6.375A1.125 1.125 0 0 0 4 11.25m10.5-5.906L16.656 7.5H14.5z"/></svg>
